public/images/well-documented.svg

<svg width="104" height="104" viewBox="0 0 104 104" fill="none" xmlns="http://www.w3.org/2000/svg">
<path d="M12.1621 29.0012C24.8647 6.99977 52.9978 -0.538484 74.9993 12.1641C97.0007 24.8666 104.539 52.9998 91.8365 75.0012C79.1339 97.0027 51.0007 104.541 28.9993 91.8384C6.99783 79.1358 -0.540436 51.0027 12.1621 29.0012Z" fill="#FFF2E9"/>
<g clip-path="url(#clip0)">
<path d="M69.3628 70.1846C67.49 69.4338 65.7159 68.0274 64.2323 66.1173C62.7192 64.169 61.4995 61.6864 60.7054 58.9378L59.7965 55.7923C59.6809 55.3924 59.3149 55.1172 58.8987 55.1172C58.4824 55.1172 58.1164 55.3924 58.0008 55.7923L57.092 58.9377C56.2978 61.6863 55.0782 64.169 53.565 66.1172C52.0814 68.0274 50.3074 69.4338 48.4345 70.1845C48.085 70.3246 47.8537 70.6608 47.8478 71.0373C47.8419 71.4139 48.0625 71.7572 48.4075 71.9082L48.698 72.0353C52.4161 73.6629 55.4545 77.671 57.0343 83.0321L58.0022 86.3166C58.1193 86.7141 58.4842 86.987 58.8987 86.987C59.3131 86.987 59.678 86.7141 59.7951 86.3166L60.763 83.0321C62.3428 77.671 65.3813 73.6629 69.0994 72.0353L69.3899 71.9082C69.7348 71.7571 69.9554 71.4139 69.9495 71.0373C69.9436 70.6608 69.7124 70.3247 69.3628 70.1846ZM58.9701 82.5037L58.8987 82.7461L58.8273 82.5037C57.2891 77.2837 54.4304 73.2037 50.8601 71.055C52.387 70.1361 53.8094 68.8498 55.0411 67.2638C56.6983 65.1302 58.0284 62.4305 58.8876 59.4565L58.8987 59.4184L58.9097 59.4565C59.769 62.4305 61.0991 65.1301 62.7562 67.2638C63.9881 68.8498 65.4104 70.1361 66.9372 71.055C63.3671 73.2038 60.5083 77.2837 58.9701 82.5037Z" fill="#F98181"/>
<path d="M39.22 64.3143L39.3657 64.378C41.1042 65.139 42.5334 67.0418 43.2868 69.5984L43.7722 71.2458C43.8894 71.6433 44.2543 71.9162 44.6687 71.9162C45.0831 71.9162 45.448 71.6433 45.5652 71.2458L46.0507 69.5984C46.8041 67.0418 48.2333 65.139 49.9718 64.3781L50.1175 64.3143C50.4625 64.1634 50.6832 63.8201 50.6772 63.4435C50.6714 63.067 50.4401 62.7308 50.0905 62.5907C48.3018 61.8736 46.781 59.8782 46.0224 57.2527L45.5666 55.6751C45.451 55.2753 45.0849 55 44.6687 55C44.2524 55 43.8863 55.2753 43.7708 55.6752L43.3151 57.2527C42.5565 59.8782 41.0357 61.8736 39.247 62.5907C38.8975 62.7308 38.6662 63.0671 38.6603 63.4435C38.6544 63.8201 38.875 64.1634 39.22 64.3143ZM44.6687 59.0649C45.4197 60.9504 46.5258 62.4679 47.8643 63.4622C46.526 64.4629 45.4173 65.9906 44.6687 67.8762C43.9201 65.9906 42.8114 64.463 41.4731 63.4622C42.8116 62.4679 43.9176 60.9504 44.6687 59.0649Z" fill="#F98181"/>
<path d="M46.3933 79.9655C45.2295 79.499 44.2341 78.1799 43.7304 76.4369L43.4133 75.3393C43.2978 74.9394 42.9317 74.6641 42.5154 74.6641C42.0993 74.6641 41.7332 74.9393 41.6176 75.3392L41.3004 76.4369C40.7968 78.1799 39.8013 79.499 38.6376 79.9655C38.2881 80.1057 38.0568 80.4419 38.0509 80.8184C38.045 81.1949 38.2657 81.5382 38.6107 81.6892L38.7119 81.7335C39.8277 82.222 40.7882 83.5124 41.2812 85.1854L41.6189 86.3316C41.7361 86.7291 42.101 87.002 42.5154 87.002C42.9299 87.002 43.2948 86.7291 43.4119 86.3316L43.7497 85.1854C44.2427 83.5124 45.2031 82.222 46.3188 81.7336L46.4202 81.6893C46.7652 81.5383 46.9859 81.195 46.98 80.8184C46.9741 80.4419 46.7428 80.1057 46.3933 79.9655ZM42.5154 83.1999C42.0525 82.2417 41.4499 81.4369 40.7474 80.8366C41.4502 80.2397 42.0519 79.4392 42.5154 78.4818C42.9789 79.4392 43.5806 80.2397 44.2833 80.8366C43.5807 81.4368 42.9782 82.2416 42.5154 83.1999Z" fill="#F98181"/>
</g>
<path d="M14.5277 60.3394L13.9236 58.3282L23.9972 59.1618L24.1743 59.7518L19.3643 63.8861L25.6603 64.6994L25.8375 65.2894L17.8903 71.5354L17.2862 69.5241L21.9235 65.9826L15.8367 65.2818L15.6554 64.6784L20.3221 60.748L14.5277 60.3394Z" fill="#F98181"/>
<path d="M22.7034 55.9562L13.4781 55.4362L13.8279 49.23L15.5332 49.3262L15.2897 53.6453L17.1627 53.7509L17.3416 50.5779L18.949 50.6685L18.7702 53.8415L21.1045 53.9731L21.3574 49.4862L23.0627 49.5823L22.7034 55.9562Z" fill="#F98181"/>
<path d="M23.6222 47.8498L14.7582 45.2409L15.2918 43.4278L22.5173 45.5544L23.6597 41.6731L25.2982 42.1553L23.6222 47.8498Z" fill="#F98181"/>
<path d="M25.1896 40.8376L17.0878 36.3949L17.9965 34.7377L24.6008 38.3592L26.5461 34.8115L28.0437 35.6328L25.1896 40.8376Z" fill="#F98181"/>
<path d="M25.6314 32.7906L24.4036 31.793L26.6282 29.0549L27.8561 30.0524L25.6314 32.7906Z" fill="#F98181"/>
<path d="M31.3602 31.4407L25.7076 24.1314L28.0997 22.2815C29.2548 21.3646 30.4744 20.9583 31.7585 21.0625C33.0369 21.1593 34.0826 21.7488 34.8957 22.8307C35.7327 23.8825 36.0422 25.0531 35.8241 26.3426C35.6061 27.6321 34.9155 28.7148 33.7523 29.5908L31.3602 31.4407ZM31.8104 28.9334L32.6964 28.2482C33.4347 27.6772 33.8663 27.0072 33.9912 26.2381C34.1104 25.4616 33.8988 24.7226 33.3564 24.0212C32.8082 23.3124 32.1557 22.9263 31.3986 22.8628C30.6416 22.7993 29.8866 23.0588 29.1335 23.6412L28.2475 24.3263L31.8104 28.9334Z" fill="#F98181"/>
<path d="M36.1153 22.0717C35.6556 20.8385 35.7229 19.6105 36.3173 18.3877C36.9205 17.1618 37.8553 16.3378 39.1218 15.9158C40.3695 15.441 41.6148 15.4873 42.8577 16.0547C44.1093 16.619 44.9474 17.524 45.372 18.7698C45.8317 20.003 45.7556 21.2341 45.1436 22.4632C44.5404 23.6891 43.6056 24.5131 42.3391 24.9351C41.0914 25.4099 39.8462 25.3636 38.6033 24.7962C37.3692 24.2257 36.5399 23.3175 36.1153 22.0717ZM43.5391 19.4236C43.2444 18.5973 42.7332 18.0116 42.0057 17.6666C41.2838 17.3098 40.5229 17.274 39.723 17.5594C38.9142 17.8478 38.3417 18.3543 38.0056 19.0787C37.6694 19.8031 37.6503 20.5828 37.9482 21.4179C38.2461 22.2531 38.7544 22.8447 39.4731 23.1928C40.1919 23.5409 40.9556 23.5707 41.7643 23.2822C42.5643 22.9968 43.1324 22.4919 43.4685 21.7676C43.8135 21.04 43.837 20.2587 43.5391 19.4236Z" fill="#F98181"/>
<path d="M47.2022 18.4864C47.1697 17.1613 47.6385 16.0224 48.6087 15.0696C49.5787 14.1074 50.7358 13.6334 52.0801 13.6474C52.9574 13.6382 53.7528 13.8353 54.4663 14.2386C55.1892 14.6324 55.7596 15.1865 56.1777 15.9008L54.7603 16.9237C54.0869 15.8946 53.1996 15.3858 52.0983 15.3973C51.2397 15.4062 50.5287 15.703 49.9654 16.2875C49.4115 16.872 49.1391 17.6029 49.1482 18.4801C49.1573 19.3574 49.4448 20.0778 50.0107 20.6413C50.586 21.2047 51.3029 21.4819 52.1615 21.4729C53.2628 21.4615 54.1393 20.9343 54.7912 19.8915L56.2296 20.8846C55.8358 21.6074 55.2817 22.1778 54.5673 22.596C53.8529 23.0048 53.0523 23.2138 52.1657 23.223C50.8127 23.2651 49.6414 22.8199 48.6516 21.8875C47.6711 20.9456 47.1879 19.8119 47.2022 18.4864Z" fill="#F98181"/>
<path d="M58.2232 19.5554L59.8717 14.3943L61.6721 14.9694L59.981 20.2638C59.7794 20.8951 59.7996 21.4453 60.0416 21.9145C60.2865 22.3749 60.6979 22.6973 61.2758 22.8819C61.8626 23.0694 62.3847 23.0451 62.8422 22.8091C63.3114 22.5671 63.6469 22.1304 63.8485 21.4992L65.5396 16.2047L67.34 16.7798L65.6915 21.9409C65.3251 23.0878 64.68 23.8958 63.7561 24.3649C62.8323 24.8341 61.828 24.8954 60.7433 24.549C59.6497 24.1997 58.8625 23.5661 58.3816 22.6483C57.9097 21.7333 57.8569 20.7023 58.2232 19.5554Z" fill="#F98181"/>
<path d="M78.2424 23.6489L78.7351 24.0188L73.0864 31.5423L71.575 30.4075L74.5338 26.4666L70.9269 27.4L70.4343 27.0301L70.3242 23.306L67.3654 27.2469L65.854 26.1121L71.5027 18.5886L71.9953 18.9585L72.118 25.3006L78.2424 23.6489Z" fill="#F98181"/>
<path d="M74.2155 33.1041L81.7298 27.727L85.3471 32.7821L83.9581 33.776L81.4406 30.258L79.915 31.3497L81.7644 33.9341L80.4551 34.871L78.6057 32.2866L76.7043 33.6472L79.3196 37.3018L77.9306 38.2958L74.2155 33.1041Z" fill="#F98181"/>
<path d="M88.7745 40.9992L89.416 42.777L80.5664 45.97L80.3526 45.3774L83.9104 38.4082L78.6955 40.2899L78.054 38.512L86.9036 35.319L87.1127 35.8984L83.5859 42.8713L88.7745 40.9992Z" fill="#F98181"/>
<path d="M80.996 49.396L88.5059 48.8191L88.2797 45.8738L89.9826 45.743L90.581 53.532L88.878 53.6628L88.6507 50.7035L81.1408 51.2804L80.996 49.396Z" fill="#F98181"/>
<path d="M81.1213 54.5114L90.2302 56.0623L89.1869 62.1901L87.5032 61.9034L88.2292 57.6388L86.3799 57.3239L85.8465 60.4568L84.2593 60.1866L84.7927 57.0537L82.4879 56.6613L81.7336 61.0915L80.0498 60.8049L81.1213 54.5114Z" fill="#F98181"/>
<path d="M79.2151 62.1684L87.5757 66.1027L86.2881 68.8389C85.6771 70.1812 84.7762 71.0982 83.5855 71.59C82.4032 72.0858 81.2038 72.0371 79.9872 71.444C78.7631 70.8886 77.9547 69.9873 77.5617 68.7399C77.1688 67.4925 77.2907 66.2141 77.9275 64.9046L79.2151 62.1684ZM79.9558 64.6058L79.4789 65.6192C79.0815 66.4637 79.0023 67.2568 79.2413 67.9985C79.4886 68.7441 80.0135 69.3057 80.8158 69.6832C81.6265 70.0647 82.3833 70.1114 83.0862 69.8233C83.7891 69.5351 84.3433 68.9604 84.7486 68.099L85.2255 67.0856L79.9558 64.6058Z" fill="#F98181"/>
<defs>
<clipPath id="clip0">
<rect width="32" height="32" fill="white" transform="translate(38 55)"/>
</clipPath>
</defs>
</svg>

<svg width="104" height="104" fill="none" xmlns="http://www.w3.org/2000/svg"><path d="M12.162 29.001C24.865 7 52.998-.539 75 12.164 97.001 24.867 104.54 53 91.837 75.001 79.133 97.003 51 104.541 28.998 91.838 6.998 79.136-.54 51.003 12.162 29.001z" fill="#FFF2E9"/><g clip-path="url(#clip0)" fill="#F98181"><path d="M69.363 70.185c-1.873-.751-3.647-2.158-5.13-4.068-1.514-1.948-2.734-4.43-3.528-7.18l-.908-3.145a.935.935 0 00-1.796 0l-.909 3.146c-.794 2.748-2.014 5.231-3.527 7.18-1.484 1.91-3.258 3.316-5.13 4.067a.935.935 0 00-.028 1.723l.291.127c3.718 1.628 6.757 5.636 8.336 10.997l.968 3.285a.935.935 0 001.793 0l.968-3.285c1.58-5.361 4.618-9.37 8.336-10.997l.29-.127a.935.935 0 00-.026-1.723zM58.97 82.504l-.071.242-.072-.242c-1.538-5.22-4.397-9.3-7.967-11.449 1.527-.919 2.95-2.205 4.181-3.791 1.657-2.134 2.987-4.833 3.847-7.807l.01-.039.012.038c.859 2.974 2.19 5.674 3.846 7.808 1.232 1.586 2.654 2.872 4.181 3.791-3.57 2.149-6.429 6.229-7.967 11.449zM39.22 64.314l.146.064c1.738.761 3.167 2.664 3.92 5.22l.486 1.648a.935.935 0 001.793 0l.486-1.648c.753-2.556 2.182-4.459 3.92-5.22l.147-.064a.934.934 0 00-.028-1.723c-1.788-.717-3.309-2.713-4.068-5.338l-.455-1.578a.935.935 0 00-1.796 0l-.456 1.578c-.758 2.625-2.28 4.62-4.068 5.338a.935.935 0 00-.027 1.723zm5.449-5.25c.75 1.886 1.857 3.404 3.195 4.398-1.338 1-2.447 2.529-3.195 4.414-.749-1.885-1.858-3.413-3.196-4.414 1.339-.994 2.445-2.512 3.196-4.397zM46.393 79.966c-1.163-.467-2.159-1.786-2.663-3.53l-.317-1.097a.935.935 0 00-1.795 0l-.318 1.098c-.503 1.743-1.499 3.062-2.662 3.529a.935.935 0 00-.027 1.723l.1.045c1.117.488 2.077 1.778 2.57 3.451l.338 1.147a.935.935 0 001.793 0l.338-1.147c.493-1.673 1.453-2.963 2.569-3.451l.101-.045a.935.935 0 00-.027-1.723zM42.515 83.2c-.462-.958-1.065-1.763-1.768-2.363.703-.597 1.305-1.398 1.768-2.355.464.957 1.066 1.758 1.768 2.355-.702.6-1.305 1.405-1.768 2.363z"/></g><path d="M14.528 60.34l-.604-2.012 10.073.834.177.59-4.81 4.134 6.296.813.177.59-7.947 6.246-.604-2.01 4.637-3.542-6.086-.701-.182-.604 4.667-3.93-5.794-.409zM22.703 55.956l-9.225-.52.35-6.206 1.705.096-.243 4.32 1.873.105.179-3.173 1.607.09-.179 3.174 2.335.131.252-4.487 1.706.096-.36 6.374zM23.622 47.85l-8.864-2.61.534-1.812 7.225 2.126 1.143-3.88 1.638.481-1.676 5.695zM25.19 40.838l-8.102-4.443.909-1.657 6.604 3.621 1.945-3.547 1.498.82-2.854 5.206zM25.631 32.79l-1.227-.997 2.224-2.738 1.228.997-2.225 2.739zM31.36 31.44l-5.652-7.309 2.392-1.85c1.155-.916 2.374-1.323 3.659-1.218 1.278.096 2.324.686 3.137 1.768.837 1.052 1.146 2.222.928 3.512-.218 1.29-.908 2.372-2.072 3.248l-2.392 1.85zm.45-2.507l.886-.685c.739-.57 1.17-1.24 1.295-2.01.12-.776-.092-1.515-.635-2.217-.548-.709-1.2-1.095-1.957-1.158-.757-.064-1.512.196-2.265.778l-.887.685 3.563 4.607zM36.115 22.072c-.46-1.233-.392-2.462.202-3.684.603-1.226 1.538-2.05 2.805-2.472 1.248-.475 2.493-.429 3.736.139 1.251.564 2.09 1.469 2.514 2.715.46 1.233.384 2.464-.228 3.693-.604 1.226-1.538 2.05-2.805 2.472-1.248.475-2.493.429-3.736-.139-1.234-.57-2.063-1.479-2.488-2.724zm7.424-2.648c-.295-.827-.806-1.412-1.533-1.757-.722-.357-1.483-.393-2.283-.108-.809.289-1.381.795-1.717 1.52-.337.724-.356 1.504-.058 2.339s.806 1.427 1.525 1.775c.719.348 1.483.378 2.291.09.8-.286 1.368-.791 1.704-1.515.345-.728.369-1.51.071-2.344zM47.202 18.486c-.032-1.325.437-2.464 1.407-3.416.97-.963 2.127-1.437 3.471-1.423.877-.009 1.673.188 2.386.592a4.373 4.373 0 011.712 1.662l-1.418 1.023c-.673-1.03-1.56-1.538-2.662-1.527-.858.01-1.57.306-2.133.89-.554.585-.826 1.316-.817 2.193.01.877.297 1.598.863 2.161.575.564 1.292.84 2.15.832 1.102-.011 1.978-.539 2.63-1.581l1.439.993a4.374 4.374 0 01-1.663 1.711c-.714.409-1.515.618-2.401.627-1.353.042-2.525-.403-3.514-1.335-.98-.942-1.464-2.076-1.45-3.402zM58.223 19.555l1.649-5.16 1.8.574-1.691 5.295c-.202.631-.181 1.181.06 1.65.245.46.657.783 1.235.968.587.187 1.109.163 1.566-.073.47-.242.805-.679 1.007-1.31l1.69-5.294 1.801.575-1.648 5.16c-.367 1.148-1.012 1.956-1.936 2.425-.924.47-1.928.53-3.013.184-1.093-.35-1.88-.983-2.361-1.9-.472-.916-.525-1.947-.159-3.094zM78.242 23.649l.493.37-5.649 7.523-1.511-1.135 2.959-3.94-3.607.933-.493-.37-.11-3.724-2.959 3.94-1.511-1.134 5.649-7.523.492.37.123 6.342 6.124-1.652zM74.216 33.104l7.514-5.377 3.617 5.055-1.389.994-2.517-3.518-1.526 1.092 1.85 2.584-1.31.937-1.85-2.584-1.9 1.36 2.615 3.655-1.39.994-3.715-5.192zM88.775 41l.641 1.777-8.85 3.193-.213-.593 3.557-6.969-5.215 1.882-.641-1.778 8.85-3.193.209.58-3.527 6.972L88.775 41zM80.996 49.396l7.51-.577-.226-2.945 1.703-.131.598 7.789-1.703.13-.227-2.959-7.51.577-.145-1.884zM81.121 54.511l9.11 1.551-1.044 6.128-1.684-.287.726-4.264-1.85-.315-.532 3.133-1.588-.27.534-3.133-2.305-.393-.754 4.43-1.684-.286 1.071-6.294zM79.215 62.168l8.36 3.935-1.287 2.736c-.61 1.342-1.512 2.26-2.703 2.751-1.182.496-2.381.447-3.598-.146-1.224-.555-2.032-1.457-2.425-2.704-.393-1.247-.271-2.526.365-3.835l1.288-2.737zm.74 2.438l-.476 1.013c-.397.845-.477 1.638-.238 2.38.248.745.772 1.307 1.575 1.684.81.382 1.567.428 2.27.14.703-.288 1.257-.863 1.663-1.724l.477-1.013-5.27-2.48z" fill="#F98181"/><defs><clipPath id="clip0"><path fill="#fff" transform="translate(38 55)" d="M0 0h32v32H0z"/></clipPath></defs></svg>
